app/assets/images/heroicons/micro/calendar.svg

<svg width="16" height="16" viewBox="0 0 16 16" fill="none" xmlns="http://www.w3.org/2000/svg">
<path fill-rule="evenodd" clip-rule="evenodd" d="M4 1.75C4 1.33579 4.33579 1 4.75 1C5.16421 1 5.5 1.33579 5.5 1.75V3H10.5V1.75C10.5 1.33579 10.8358 1 11.25 1C11.6642 1 12 1.33579 12 1.75V3C13.1046 3 14 3.89543 14 5V12C14 13.1046 13.1046 14 12 14H4C2.89543 14 2 13.1046 2 12V5C2 3.89543 2.89543 3 4 3V1.75ZM4.5 6C3.94772 6 3.5 6.44772 3.5 7V11.5C3.5 12.0523 3.94772 12.5 4.5 12.5H11.5C12.0523 12.5 12.5 12.0523 12.5 11.5V7C12.5 6.44772 12.0523 6 11.5 6H4.5Z" fill="#0F172A"/>
</svg>

<svg xmlns="http://www.w3.org/2000/svg" viewBox="0 0 16 16" fill="currentColor" aria-hidden="true" data-slot="icon">
  <path fill-rule="evenodd" d="M4 1.75a.75.75 0 0 1 1.5 0V3h5V1.75a.75.75 0 0 1 1.5 0V3a2 2 0 0 1 2 2v7a2 2 0 0 1-2 2H4a2 2 0 0 1-2-2V5a2 2 0 0 1 2-2V1.75ZM4.5 6a1 1 0 0 0-1 1v4.5a1 1 0 0 0 1 1h7a1 1 0 0 0 1-1V7a1 1 0 0 0-1-1h-7Z" clip-rule="evenodd"/>
</svg>
